COLOR/action 16/16/path-tweak-push.svg

<svg height="16" width="16" xmlns="http://www.w3.org/2000/svg"><g stroke-width=".646494"><path d="m.5 7.3570379c3.2434848.042738 2.7118276-3.703705 7.5479843-3.6565973 4.8361567.0472142 3.3518897 3.7640283 7.4520157 3.6565973v4.3429621c-3.68959 0-4.471846-3.9343406-7.4580618-3.9383906-3.3178705-.0042631-3.9390964 3.9383906-7.5419382 3.9383906z" fill="#1a7fd4"/><path d="m8.0488281 3.7011719c-4.8361567-.0471077-4.3053433 3.698988-7.5488281 3.65625v.5c3.2434848.042738 2.7126714-3.7033577 7.5488281-3.65625 4.8361569.0472142 3.3510459 3.763681 7.4511719 3.65625v-.5c-4.100126.107431-2.615015-3.6090358-7.4511719-3.65625z" fill="#fbfdff" opacity=".3"/><path d="m8.0410156 7.2617188c-3.3178705-.0042632-3.9381738 3.9375002-7.5410156 3.9375002v.5c3.6028418 0 4.2231451-3.9417634 7.5410156-3.9375002 2.9862154.0040499 3.7693944 3.9375002 7.4589844 3.9375002v-.5c-3.68959 0-4.472769-3.9334503-7.4589844-3.9375002z" opacity=".2"/></g></svg>

<?xml version="1.0" encoding="UTF-8" standalone="no"?>
<svg
   xmlns:dc="http://purl.org/dc/elements/1.1/"
   xmlns:cc="http://creativecommons.org/ns#"
   xmlns:rdf="http://www.w3.org/1999/02/22-rdf-syntax-ns#"
   xmlns:svg="http://www.w3.org/2000/svg"
   xmlns="http://www.w3.org/2000/svg"
   xmlns:sodipodi="http://sodipodi.sourceforge.net/DTD/sodipodi-0.dtd"
   xmlns:inkscape="http://www.inkscape.org/namespaces/inkscape"
   height="16"
   width="16"
   version="1.1"
   id="svg4"
   sodipodi:docname="path-tweak-push.svg"
   inkscape:version="0.92.4 (5da689c313, 2019-01-14)">
  <metadata
     id="metadata10">
    <rdf:RDF>
      <cc:Work
         rdf:about="">
        <dc:format>image/svg+xml</dc:format>
        <dc:type
           rdf:resource="http://purl.org/dc/dcmitype/StillImage" />
      </cc:Work>
    </rdf:RDF>
  </metadata>
  <defs
     id="defs8" />
  <sodipodi:namedview
     pagecolor="#ffffff"
     bordercolor="#666666"
     borderopacity="1"
     objecttolerance="10"
     gridtolerance="10"
     guidetolerance="10"
     inkscape:pageopacity="0"
     inkscape:pageshadow="2"
     inkscape:window-width="947"
     inkscape:window-height="622"
     id="namedview6"
     showgrid="false"
     inkscape:zoom="14.75"
     inkscape:cx="8"
     inkscape:cy="8"
     inkscape:window-x="0"
     inkscape:window-y="27"
     inkscape:window-maximized="0"
     inkscape:current-layer="svg4" />
  <path
     d="M 0.5,7.3570379 C 3.7434848,7.3997759 3.2118276,3.6533329 8.0479843,3.7004406 12.884141,3.7476548 11.399874,7.4644689 15.5,7.3570379 V 11.7 C 11.81041,11.7 11.028154,7.7656594 8.0419382,7.7616094 4.7240677,7.7573463 4.1028418,11.7 0.5,11.7 Z"
     id="path2"
     inkscape:connector-curvature="0"
     style="fill:#1a7fd4;stroke-width:0.64649403" />
  <path
     style="fill:#fbfdff;stroke-width:0.64649403;fill-opacity:1;opacity:0.3"
     d="M 8.0488281 3.7011719 C 3.2126714 3.6540642 3.7434848 7.4001599 0.5 7.3574219 L 0.5 7.8574219 C 3.7434848 7.9001599 3.2126714 4.1540642 8.0488281 4.2011719 C 12.884985 4.2483861 11.399874 7.9648529 15.5 7.8574219 L 15.5 7.3574219 C 11.399874 7.4648529 12.884985 3.7483861 8.0488281 3.7011719 z "
     id="path817" />
  <path
     style="fill:#000000;stroke-width:0.64649403;fill-opacity:1;opacity:0.2"
     d="M 8.0410156 7.2617188 C 4.7231451 7.2574556 4.1028418 11.199219 0.5 11.199219 L 0.5 11.699219 C 4.1028418 11.699219 4.7231451 7.7574556 8.0410156 7.7617188 C 11.027231 7.7657687 11.81041 11.699219 15.5 11.699219 L 15.5 11.199219 C 11.81041 11.199219 11.027231 7.2657687 8.0410156 7.2617188 z "
     id="path835" />
</svg>
